X: 7
T: Over the Waterfall
O: Old-Time
M:2/4
L:1/16
Q:1/4=120
R: Reel
K: D
de| "D"f2a2 "A7"gfe2| "D"d2B2 A2de| f2a2 "A7"gfe2| "D"d6 de| \
    "D"f2a2 "A7"gfe2| "D"d2B2 A2AB| "C"=c4 B2A2| "G"G6 :|
FG| "D"A2AA "G"B2B2| "D"ABAG F2FG| A2d2 "A7"cde2| "D"d6FG| \
    "D"A2AA "G"B2B2| "D"ABAG F2FG| A2AA "A7"GFE2| "D"D6 :|
W:$2You can play Em or Bm instead of G in the second line.$1

